lib/logo_tmp/nrk-logo-nrk-p3-title-below-on-dark.svg

<svg width="35" height="35" viewBox="0 0 35 35" fill="none" xmlns="http://www.w3.org/2000/svg">
<rect x="3.33325" y="3.33331" width="28" height="28" fill="black"/>
<path fill-rule="evenodd" clip-rule="evenodd" d="M0 0H34.6667V34.6667H0V0ZM11.1955 15.407H7.99996V27.0174H11.1955V15.407ZM15.2472 15.407H11.6587C11.6587 15.407 13.6975 18.7494 13.7205 18.7915C13.8767 19.0566 13.8863 19.2192 13.7337 19.4749L11.6587 22.872H15.2472C15.2472 22.872 16.9776 20.0461 17.2142 19.6538C17.449 19.2614 17.4384 19.0174 17.2047 18.6146C16.9659 18.2082 16.9505 18.1832 15.5455 15.8933L15.2472 15.407ZM25.297 15.407C25.297 15.407 26.3649 17.1253 26.4856 17.3306C26.72 17.7348 26.7306 17.9793 26.4949 18.373C26.3304 18.6459 24.9186 20.9823 24.9186 20.9823C25.1773 21.4044 25.5218 21.9565 25.8244 22.4413L25.8249 22.4421L25.8249 22.4422L25.8251 22.4424C26.1358 22.9403 26.4022 23.3671 26.4855 23.5089C26.7199 23.913 26.7305 24.1576 26.4949 24.5513C26.4508 24.6245 26.3618 24.7739 26.2449 24.9701L26.242 24.975L26.2395 24.9792L26.2387 24.9806C25.9195 25.5165 25.3984 26.3913 25.0151 27.0174H21.7364L23.5316 24.0708L21.6695 20.9497L23.3393 18.2173H19.2944L17.6166 15.407H25.297ZM19.0973 21.369C18.592 22.1936 17.7466 23.5751 17.5883 23.8446C17.3626 24.2338 17.3524 24.4693 17.5792 24.8485C17.7376 25.1113 18.5897 26.5039 19.0974 27.3333C19.6052 26.5038 20.4572 25.1112 20.6156 24.8485C20.8425 24.4692 20.8323 24.2338 20.6065 23.8446C20.4481 23.5751 19.6026 22.1936 19.0973 21.369ZM7.99996 7.1561V13.6874H10.1435V7.1561H7.99996ZM14.2927 13.6874L13.0599 8.19559C13.0007 7.90488 12.8431 7.64343 12.6139 7.4551C12.3849 7.25852 12.0922 7.15219 11.7905 7.1561H10.4747L11.9467 13.6874H14.2927ZM14.6147 7.1561V13.6874H16.7583V7.1561H14.6147ZM17.7197 9.46506C17.919 9.58167 18.1462 9.64209 18.3772 9.63987C18.3771 9.63987 18.3771 9.63986 18.377 9.63986H18.3773C18.3773 9.63986 18.3772 9.63987 18.3772 9.63987C18.6069 9.64256 18.8329 9.58208 19.0305 9.46506C19.2253 9.35038 19.3869 9.18714 19.4997 8.9913C19.6164 8.79187 19.6768 8.56462 19.6747 8.3336C19.6772 8.10399 19.6167 7.87809 19.4997 7.68047C19.3857 7.48676 19.2242 7.32529 19.0305 7.21131C18.8328 7.09451 18.6069 7.03404 18.3773 7.03651C18.1464 7.0344 17.9191 7.09482 17.7197 7.21131C17.524 7.3243 17.3608 7.48591 17.2459 7.68047C17.1288 7.87804 17.0683 8.10398 17.0709 8.3336C17.0686 8.56464 17.1291 8.79193 17.2459 8.9913C17.3596 9.188 17.523 9.35138 17.7197 9.46506ZM20.0058 7.1561V13.6874H22.1496V7.1561H20.0058ZM25.0014 10.9507C24.9155 10.8068 24.8695 10.7317 24.8634 10.7253H24.8631C24.7973 10.6372 24.7589 10.5316 24.7529 10.4218C24.7567 10.3171 24.7885 10.2155 24.8449 10.1273L26.6666 7.15595H24.3114C24.1643 7.39533 24.0309 7.61304 23.9111 7.80908C23.7919 8.00533 23.6647 8.21539 23.5296 8.43923C23.3945 8.66308 23.261 8.88232 23.1291 9.09697C22.9972 9.31161 22.8822 9.49711 22.7841 9.65349C22.686 9.80987 22.6185 9.91875 22.5817 9.98007C22.4945 10.1117 22.4438 10.2641 22.4346 10.4218C22.4461 10.586 22.4999 10.7445 22.5909 10.8817C22.6276 10.937 22.6936 11.0443 22.7888 11.2037C22.8837 11.3629 22.9971 11.5484 23.1291 11.7602C23.2611 11.972 23.3946 12.1897 23.5296 12.4133C23.6643 12.6372 23.7915 12.8457 23.9111 13.0389C24.0307 13.2321 24.1641 13.4482 24.3114 13.6874H26.6666C26.4946 13.4054 26.3413 13.1524 26.2066 12.9285C26.0715 12.7046 25.9273 12.4669 25.7741 12.2156C25.6208 11.9642 25.4752 11.7266 25.3372 11.5026C25.1993 11.2786 25.0874 11.0946 25.0014 10.9507Z" fill="#FFE100"/>
</svg>

<svg xmlns="http://www.w3.org/2000/svg" viewBox="0 0 35 35"><path fill="#000" d="M3.333 3.333h28v28h-28z"/><path fill="#FFE100" fill-rule="evenodd" d="M0 0h34.667v34.667H0V0Zm11.195 15.407H8v11.61h3.195v-11.61Zm4.052 0H11.66s2.038 3.342 2.061 3.384c.157.266.166.428.014.684l-2.075 3.397h3.588s1.73-2.826 1.967-3.218c.235-.393.224-.637-.01-1.04-.238-.406-.253-.43-1.659-2.72l-.298-.487Zm10.05 0s1.068 1.718 1.189 1.924c.234.404.245.648.009 1.042a9958.7 9958.7 0 0 1-1.576 2.61c.258.421.603.973.905 1.458v.001h.001c.31.498.577.925.66 1.067.235.404.245.649.01 1.042l-.25.42-.003.004-.003.004v.002c-.32.535-.84 1.41-1.224 2.036h-3.279l1.796-2.946-1.863-3.121 1.67-2.733h-4.045l-1.677-2.81h7.68Zm-6.2 5.962c-.505.825-1.35 2.206-1.509 2.476-.225.389-.236.624-.009 1.004.159.262 1.01 1.655 1.518 2.484.508-.83 1.36-2.222 1.519-2.484.227-.38.216-.615-.01-1.004-.158-.27-1.003-1.651-1.509-2.476ZM8 7.156v6.531h2.143v-6.53H8Zm6.293 6.531L13.06 8.196a1.292 1.292 0 0 0-.446-.74 1.24 1.24 0 0 0-.824-.3h-1.315l1.472 6.531h2.346Zm.322-6.53v6.53h2.143v-6.53h-2.143Zm3.105 2.308c.199.117.426.177.657.175.23.003.456-.058.654-.175a1.306 1.306 0 0 0 .644-1.131 1.255 1.255 0 0 0-.175-.654 1.323 1.323 0 0 0-.47-.469 1.258 1.258 0 0 0-.653-.174 1.312 1.312 0 0 0-1.131.644 1.253 1.253 0 0 0-.175.653 1.297 1.297 0 0 0 .649 1.131Zm2.286-2.309v6.531h2.144v-6.53h-2.144ZM25 10.951a4.962 4.962 0 0 0-.138-.226.558.558 0 0 1-.11-.303.586.586 0 0 1 .092-.295l1.822-2.971H24.31a310.451 310.451 0 0 0-.781 1.283 96.347 96.347 0 0 1-.948 1.541.894.894 0 0 0-.147.442.952.952 0 0 0 .156.46c.037.055.103.162.198.322.095.159.208.344.34.556.132.212.266.43.4.653.135.224.262.433.382.626l.4.648h2.356a146.85 146.85 0 0 1-.46-.758 183.366 183.366 0 0 0-.87-1.426c-.138-.224-.25-.408-.336-.552Z" clip-rule="evenodd"/></svg>
